X:534
%%etbk:tnset id:269,pos:1,rep:2x,ant:
%%etbk:pldat 2016-05-05T11:40,2016-05-04T14:50,2016-05-03T16:46,2016-05-02T18:25,2016-04-09T14:58,2016-04-08T18:30,2016-04-07T15:56,2016-04-05T15:53,2016-04-04T18:42,2016-04-02T14:07,2016-03-31T15:46,2016-03-30T16:20,2016-03-28T15:54,2016-03-24T16:10,2016-02-18T18:04,2016-02-17T15:08,2016-02-16T15:13,2016-02-15T18:56,2016-02-07T14:35,2016-01-27T15:33,2016-01-10T13:32,2015-12-11T18:05,2015-12-10T18:47,2015-12-10T18:00,2015-12-09T15:40,2015-12-08T15:08,2015-12-07T18:25,2015-12-06T13:55,2015-12-03T18:41,2015-12-02T16:36,2015-12-01T15:56,2015-11-29T14:16,2015-11-26T18:07,2015-11-04T16:16,2015-11-03T16:26,2015-11-02T18:08,2015-11-01T14:01,2015-10-24T15:12,2015-10-20T16:24,2015-10-07T15:15,2015-10-05T18:15,2015-10-03T15:59,2015-10-01T17:56,2015-09-30T16:19,2015-09-28T18:15,2015-08-19T16:38,2014-12-11T18:00,2014-10-30T18:20,2014-10-29T16:29,2014-10-28T16:29,2014-10-27T18:17,2014-10-25T14:34,2014-10-23T18:59,2014-10-22T19:26,2014-10-13T18:34,2014-09-27T10:27,2014-01-22T15:33,2014-01-21T16:37,2014-01-20T18:14,2014-01-19T13:04,2014-01-18T13:46,2014-01-13T18:08,2014-01-09T18:10,2014-01-07T15:33,2014-01-06T18:56,2013-10-30T15:15,2013-10-29T15:19,2013-10-17T18:46,2013-10-15T18:32,2013-10-14T18:03,2013-10-13T14:14
T: Little Paradise
R: song
M: 3/4
L: 1/8
K: Bmin
P:I
|"bm"z4z2|"bm"z4z2|"A"z4z2|"bm"z4z2|
"bm"z4z2|"bm"z4z2|"em"z4z2|"bm"z4z2|
"em"z4z2|"bm"z4z2|"bm"z4z2|"A"z4z2|
"bm"z4z2|"bm"z4z2|"f#m"z4z2|"bm"z4z2|"bm"z4z2|
P:S
f2|"bm"f4f2|"bm"f4ef|"A"a4e2|"bm"f4f2|"bm (nur 1.x)"-f4f2|"bm"f4ef|
"bm"b4f2|"em"g2-gf g2|"bm"b4-b2|"bm"-b4b2|
"em"b4bc'| "bm"d'c'b2-bf|"bm"f4f2|"A"e4-e2|"f#m (nur letzte Strophe)"z4z2|
"bm"fe d2 z2|"A"ed c2 z2|"bm"B2-Bc dc|"bm"B4-B2|"bm"-B4z2|
P:Z
|"bm"F#B Bc de|"bm"f2 fe f2|"f#m"f2-fa e2|"bm"f2-f2 a2|
"bm"b2-bc' ba|"bm"b2 ba f2|"bm"f2 fe d2|"f#m"e2-e2 e2|
"bm"f2-fb fe|"bm"f2 d2 d2 |"bm"f2-fb fd|"f#m"e2-e2 fa|
"bm"b2-bc' ba|"bm"b2 ba f2|"f#m"e2 ed c2|"bm"B4-B2|-B4 z2|


